X: 24624
T: Mac's Fancy
R: jig
M: 6/8
K: Adorian
eAA f{gf}ed|eAA f z d|eAA g{ag}fe|dBG G3|
eAA f{gf}ed|eAA f z f/g/|agf g{ag}fe|dBG G3:|
|:A3 a3|gef g{ag}fe|A3 a3|g{ag}fe dcB|
A3 a3|gef g3|gfg ege|dBG G3:|

